X: 32
T:Dancing Bear
R:Reel
M:C
L:1/8
N:Bob McQuillen, transcribed by Bruce Thomson
H:Rodney Miller, Airplang, Rounder CD 0193
K:Em
|:E2EF GFEF|GFE2EFED|E2EF GFEF|GFE2E4|E2EF GFEF|
GFED EFGA|B3cBAGA|[1BcBA GFED:|[2BcBA Bcd^d||e2ef
gfef|gfe2e4|e2ef gfef|gfe2e4|e2ef gfef|gfed BcBA|
B3c BAGA|[1BcBA Bcd^d:|[2BcB GFED||

